X:944
T:Bonnie Isle O' Whalsay
R:reel
O:Shetland
Z:id:hn-reel-944
M:C|
L:1/8
K:Amix
edcA B2ed | cAAc BGG2 | edcA B2ed | cAB^G A4 :| 
|: cdeg fded | cAAc BGG2 |1 cdeg fded | cAB^G A4 :|2 cdef gage | dBGB A4 |  

